svgs/duotone/cow.svg

<svg xmlns="http://www.w3.org/2000/svg" viewBox="0 0 640 512"><!--! Font Awesome Pro 6.3.0 by @fontawesome - https://fontawesome.com License - https://fontawesome.com/license (Commercial License) Copyright 2023 Fonticons, Inc. --><defs><style>.fa-secondary{opacity:.4}</style></defs><path class="fa-primary" d="M633.6 275.2L624 262.4l.0021-76.66c0-9.6-6.402-16.14-16-16.14c-3.2 0-6.4 0-6.4 3.2C592 179.2 582.4 185.6 576 195.2l-67.2-89.6C489.6 80 460.8 64 432 64H160C124.8 64 96 92.8 96 128l.0002 304c0 9.6 6.401 16 16 16h63.1c9.6 0 16-6.4 16-16L192 352c0-44.8 35.2-80 80-80S352 307.2 352 352l.0012 80c0 9.6 6.4 16 15.1 16h64c9.6 0 16-6.4 16-16V256l31.1 32l.0006 41.55c0 12.8 3.198 25.65 9.598 35.25l41.6 60.8c16 22.4 44.8 28.8 64 12.8c9.6-6.4 19.2-19.2 19.2-28.8L640 300.8C640 291.2 640 284.8 633.6 275.2zM377.6 166.4l-22.4 22.4C332.8 211.2 304.1 224 272.1 224S211.2 211.2 188.8 188.8L166.4 166.4C150.4 150.4 163.3 128 188.9 128h166.2C380.7 128 393.6 150.4 377.6 166.4zM576 352c-9.6 0-16-6.4-16-16s6.4-16 16-16s16 6.4 16 16S585.6 352 576 352z"/><path class="fa-secondary" d="M96 115.2C83.2 121.6 73.6 134.4 70.4 153.6V256c0 35.2-28.8 64-64 64H0V288c0-19.2 9.6-38.4 25.6-48V153.6C25.6 102.4 64 64 112 64H160C131.2 64 102.4 86.4 96 115.2zM332.8 300.8C320 281.6 294.4 272 272 272C224 272 195.2 313.6 192 348.8V352c9.6 9.6 19.2 16 32 22.4V400C224 409.6 230.4 416 240 416S256 409.6 256 400V384c9.6 0 12.8 3.2 32 0L288 400C288 409.6 294.4 416 304 416s16-6.4 16-16v-25.6C332.8 368 342.4 361.6 352 352C352 332.8 345.6 316.8 332.8 300.8z"/></svg>

<svg xmlns="http://www.w3.org/2000/svg" viewBox="0 0 640 512"><!-- Font Awesome Pro 6.0.0-alpha2 by @fontawesome - https://fontawesome.com License - https://fontawesome.com/license (Commercial License) --><defs><style>.fa-secondary{opacity:.4}</style></defs><path d="M96 115.2C83.2 121.6 73.6 134.4 70.4 153.6V256C70.4 291.2 41.6 320 6.4 320H0V288C0 268.8 9.6 249.6 25.6 240V153.6C25.6 102.4 64 64 112 64H160C131.2 64 102.4 86.4 96 115.2ZM332.8 300.8C320 281.6 294.4 272 272 272C224 272 195.2 313.6 192 348.8V352C201.6 361.6 211.2 368 224 374.4V400C224 409.6 230.4 416 240 416S256 409.6 256 400L256 400V384C265.6 384 268.8 387.2 288 384V400C288 409.6 294.4 416 304 416S320 409.6 320 400L320 400V374.4C332.8 368 342.4 361.6 352 352C352 332.8 345.6 316.8 332.8 300.8Z" class="fa-secondary"/><path d="M633.6 275.2L624 262.4V185.6C624 176 617.6 169.6 608 169.6C604.8 169.6 601.6 169.6 601.6 172.8C592 179.2 582.4 185.6 576 195.2L508.8 105.6C489.6 80 460.8 64 432 64H160C124.8 64 96 92.8 96 128V432C96 441.6 102.4 448 112 448H176C185.6 448 192 441.6 192 432V352C192 307.2 227.2 272 272 272S352 307.2 352 352V432C352 441.6 358.4 448 368 448H432C441.6 448 448 441.6 448 432V256L480 288V329.6C480 342.4 483.2 355.2 489.6 364.8L531.2 425.6C547.2 448 576 454.4 595.2 438.4C604.8 432 614.4 419.2 614.4 409.6L640 300.8C640 291.2 640 284.8 633.6 275.2ZM377.6 166.4L355.2 188.8C332.8 211.2 304 224 272 224L272 224C240 224 211.2 211.2 188.8 188.8L166.4 166.4C150.4 150.4 163.2 128 188.8 128H355.2C380.8 128 393.6 150.4 377.6 166.4ZM576 352C566.4 352 560 345.6 560 336S566.4 320 576 320S592 326.4 592 336S585.6 352 576 352Z" class="fa-primary"/></svg>
